assets/img/icons/intro/lightCurtains.svg

<svg width="81" height="80" viewBox="0 0 81 80" fill="none" xmlns="http://www.w3.org/2000/svg">
<path d="M32.8 17H8.80005" stroke="#A89365" stroke-width="2" stroke-linecap="round" stroke-linejoin="round"/>
<path d="M14.8 43H8.80005V48.1058H14.8V43Z" stroke="#A89365" stroke-width="2"/>
<path d="M8.80005 17V66M32.8 17C32.8 17 31.6065 37.0936 14.3 43C25.7562 31.8281 24.5866 17 24.5866 17M16.8 17C16.8 17 17.4304 29.3425 11.8 42.951M14.8 48C14.8 48 16.0422 59.2047 18.8 63" stroke="#A89365" stroke-width="2" stroke-linecap="round" stroke-linejoin="round"/>
<path d="M8.8039 65C8.25162 64.9979 7.80218 65.4439 7.80006 65.9962C7.79793 66.5484 8.24392 66.9979 8.7962 67L8.8039 65ZM8.80005 66C8.7962 67 8.79645 67 8.79672 67C8.79685 67 8.79715 67 8.7974 67C8.7979 67 8.7985 67 8.79921 67C8.80062 67 8.80243 67 8.80464 67C8.80906 67 8.81508 67 8.82266 67C8.83781 66.9999 8.8592 66.9998 8.88652 66.9995C8.94116 66.9989 9.01958 66.9976 9.11933 66.9948C9.31876 66.9893 9.60396 66.9779 9.95538 66.9545C10.6569 66.9078 11.6291 66.8128 12.7133 66.619C14.8409 66.2385 17.571 65.4486 19.4684 63.7439L18.1317 62.2561C16.6615 63.577 14.3916 64.2871 12.3612 64.6502C11.3663 64.8281 10.4698 64.9158 9.82258 64.9589C9.4996 64.9804 9.24034 64.9907 9.0639 64.9956C8.97572 64.998 8.90835 64.9991 8.86419 64.9996C8.84211 64.9999 8.82585 65 8.8157 65C8.81062 65 8.80708 65 8.8051 65C8.80411 65 8.80351 65 8.80331 65C8.80321 65 8.80321 65 8.8033 65C8.80335 65 8.8035 65 8.80353 65C8.8037 65 8.8039 65 8.80005 66Z" fill="#A89365"/>
<path d="M48.8 17H72.8" stroke="#A89365" stroke-width="2" stroke-linecap="round" stroke-linejoin="round"/>
<path d="M66.8 43H72.8V48.1058H66.8V43Z" stroke="#A89365" stroke-width="2"/>
<path d="M72.8 17V66M48.8 17C48.8 17 49.9936 37.0936 67.3 43C55.8439 31.8281 57.0135 17 57.0135 17M64.8 17C64.8 17 64.1697 29.3425 69.8 42.951M66.8 48C66.8 48 65.5579 59.2047 62.8 63" stroke="#A89365" stroke-width="2" stroke-linecap="round" stroke-linejoin="round"/>
<path d="M72.7962 65C73.3485 64.9979 73.7979 65.4439 73.8 65.9962C73.8022 66.5484 73.3562 66.9979 72.8039 67L72.7962 65ZM72.8 66C72.8039 67 72.8036 67 72.8034 67C72.8032 67 72.8029 67 72.8027 67C72.8022 67 72.8016 67 72.8009 67C72.7995 67 72.7977 67 72.7955 67C72.791 67 72.785 67 72.7774 67C72.7623 66.9999 72.7409 66.9998 72.7136 66.9995C72.6589 66.9989 72.5805 66.9976 72.4808 66.9948C72.2813 66.9893 71.9961 66.9779 71.6447 66.9545C70.9431 66.9078 69.971 66.8128 68.8868 66.619C66.7592 66.2385 64.0291 65.4486 62.1317 63.7439L63.4684 62.2561C64.9385 63.577 67.2085 64.2871 69.2389 64.6502C70.2338 64.8281 71.1303 64.9158 71.7775 64.9589C72.1005 64.9804 72.3598 64.9907 72.5362 64.9956C72.6244 64.998 72.6917 64.9991 72.7359 64.9996C72.758 64.9999 72.7742 65 72.7844 65C72.7895 65 72.793 65 72.795 65C72.796 65 72.7966 65 72.7968 65C72.7969 65 72.7969 65 72.7968 65C72.7967 65 72.7966 65 72.7966 65C72.7964 65 72.7962 65 72.8 66Z" fill="#A89365"/>
<path d="M40.7997 8.26784C41.5447 8.26784 42.2723 8.15078 42.9627 7.91976C43.6293 7.69683 44.245 7.3734 44.792 6.95873C45.2617 6.60251 45.6663 6.18812 45.9952 5.7321H35.6049C35.9339 6.18824 36.3385 6.60263 36.8084 6.959C37.3548 7.37359 37.9701 7.69678 38.6381 7.91999C39.3276 8.1508 40.0549 8.26784 40.7997 8.26784ZM40.7997 9.99994C39.8206 9.99994 38.864 9.84578 37.9552 9.54155C37.077 9.24812 36.2676 8.8231 35.5493 8.27808C34.1025 7.18083 33.1258 5.66154 32.8 4H48.8C48.4743 5.66185 47.4976 7.18083 46.0508 8.27808C45.3318 8.8231 44.5224 9.24812 43.6449 9.54155C42.7357 9.84578 41.7791 9.99994 40.7997 9.99994Z" fill="#A89365"/>
<path d="M34.1868 10L30.8 13.0824" stroke="#A89365" stroke-width="2"/>
<path d="M47.4133 10L50.8001 13.0824" stroke="#A89365" stroke-width="2"/>
<path d="M38.0315 11L36.3379 14.5964" stroke="#A89365" stroke-width="2"/>
<path d="M42.9832 11L43.5478 14.5964" stroke="#A89365" stroke-width="2"/>
</svg>

<svg width="81" height="80" fill="none" xmlns="http://www.w3.org/2000/svg"><path d="M32.8 17h-24" stroke="#A89365" stroke-width="2" stroke-linecap="round" stroke-linejoin="round"/><path d="M14.8 43h-6v5.106h6V43z" stroke="#A89365" stroke-width="2"/><path d="M8.8 17v49m24-49s-1.193 20.094-18.5 26c11.456-11.172 10.287-26 10.287-26M16.8 17s.63 12.343-5 25.951m3 5.049s1.242 11.205 4 15" stroke="#A89365" stroke-width="2" stroke-linecap="round" stroke-linejoin="round"/><path d="M8.804 65a1 1 0 00-.008 2l.008-2zM8.8 66l-.003 1h.09l.232-.005a25.5 25.5 0 003.594-.376c2.128-.38 4.858-1.17 6.755-2.875l-1.336-1.488c-1.47 1.321-3.74 2.031-5.77 2.394a23.486 23.486 0 01-3.298.346 12.706 12.706 0 01-.248.004h-.013L8.8 66z" fill="#A89365"/><path d="M48.8 17h24" stroke="#A89365" stroke-width="2" stroke-linecap="round" stroke-linejoin="round"/><path d="M66.8 43h6v5.106h-6V43z" stroke="#A89365" stroke-width="2"/><path d="M72.8 17v49m-24-49s1.194 20.094 18.5 26C55.844 31.828 57.014 17 57.014 17m7.786 0s-.63 12.343 5 25.951M66.8 48s-1.242 11.205-4 15" stroke="#A89365" stroke-width="2" stroke-linecap="round" stroke-linejoin="round"/><path d="M72.796 65a1 1 0 01.008 2l-.008-2zm.004 1l.003 1h-.089l-.233-.005a25.497 25.497 0 01-3.594-.376c-2.128-.38-4.858-1.17-6.755-2.875l1.336-1.488c1.47 1.321 3.74 2.031 5.77 2.394a23.486 23.486 0 003.298.346 12.7 12.7 0 00.248.004h.013l.003 1zm-32-57.732c.745 0 1.472-.117 2.163-.348a6.358 6.358 0 001.829-.961c.47-.356.874-.77 1.203-1.227h-10.39c.329.456.734.87 1.203 1.227a6.343 6.343 0 001.83.961c.69.23 1.417.348 2.162.348zm0 1.732a8.94 8.94 0 01-2.845-.458 8.341 8.341 0 01-2.406-1.264C34.102 7.181 33.126 5.662 32.8 4h16c-.326 1.662-1.302 3.18-2.75 4.278a8.36 8.36 0 01-2.405 1.264A8.945 8.945 0 0140.8 10z" fill="#A89365"/><path d="M34.187 10L30.8 13.082M47.413 10l3.387 3.082M38.032 11l-1.694 3.596M42.983 11l.565 3.596" stroke="#A89365" stroke-width="2"/></svg>
